X:1

T:Whin Blossom, The

M:6/8

L:1/8

R:Air

N:”Graceful”

S:O’Neill – Music of Ireland (1903), No. 515

Z:AK/Fiddler’s Companion

K:D

D/E/ | FGA GAE | DEG A2 B/c/ | dcA GAE | D3 C2 D/E/ | FGA GAE |

DEG A2 B/c/ | dcA GAE | D3 D2 || G | ABc d2 e/d/ | cdc A2 G/A/ |

dcA GAE | D3 C2 D/E/ | FGA GAE | DEG A2 B/c/ | dcA GAE | D3 D2 ||

                       

WHINHAM’S HORNPIPE. English, Hornpipe. England, Northumbria. F Major. Standard tuning. AA’BB. Composed by Robert Whinham (1814-1893). Dixon (Remember Me), 1995; pg. 17.

 

WHINHAM’S JIG. AKA and see “Me Mother’s Jig.” English, Jig. England, Northumberland. Composed by Robert Whinham (1814-1893). The tune appears under this title in the T. Armstrong manuscript (c. 1850, in John Armstrong of Carrick’s collection), and in L. Baty’s manuscript (1883, Beamish Museum), as researched by Graham Dixon. Topic 12TS388, High Level Ranters – “Four in a Bar.”

 

WHINHAM’S REEL. AKA and see “Mrs. Thompson of Gofton’s Strathspey,” “The Pibroch!” English, Reel. G Major. Standard tuning. AABB: AABBCCDD’EE’ (Callaghan): AABBCCDDEAABB (Dixon). Composed by Robert Whinham, an itinerant Northumbrian musician, fiddle and dancing master, teacher and composer, who lived between 1814 and 1893. Whinham ended his days in a workhouse in Morpeth where he was registered as a “teacher of music in Morpeth (Northumberland).” The only known photograph of him was taken there. Callaghan (2007) notes the tune is popular throughout England, although usually only the first two parts are played. Source for notated version: Colin Ross [Dixon]. Callaghan (Hardcore English), 2007; pg. 94. Dixon (Remember Me), 1995; pg. 17. Folktracks 30-119, Billy Ballantine – “Whistle in the Wind.” Topic Records, Willie Taylor & Joe Hutton  – “Bonnie North Tyne.” REDE 002, Dishalagie – “Berwick Pipes.” Topic 12TS184, High Level Ranters – “Northumberland for Ever.” Topic 12TS239, George Hepple & Donald Ridley (et al) – “Wild Hills o’ Wannies.”  

